X:1
T:Daniel, 11.10.11.10 D
T:Daniel, 11.10.11.10 D
T:Ira David Sankey, 1890
T:Public Domain Courtesy of the Cyber Hymnal™
C:Ira David Sankey, 1890
Z:Public Domain
Z:Courtesy of the Cyber Hymnal™
%%score ( 1 2 ) ( 3 4 )
L:1/8
Q:1/4=100
M:4/4
K:D
V:1 treble 
V:2 treble 
V:3 bass 
V:4 bass 
V:1
 [FA]2 [^E^G]>[FA] [Fd]3 [DA] | [DG][DF][CE]D [DB]2 [DA]2 | [EG]2 [CA]>[CE] [DF]3 [DF] | %3
 [DF][DF] [D^G]>[DG] [CA]4 | [FA]2 [^E^G]>[FA] [Fd]3 [Fc] | [Ge][Gd][Gc][GB] [GB]2 [FA]2 | %6
 [GB]2 [Gc][Gd] [Dd][FA][DF][DG] | [DF]2 [CE]2 D4 | [CE]2 [EA]>[EB] [Ec]3 [Ec] | %9
 [Ec][EB] [Ed]>[E^G] [EB]2 [EA]2 | [CE]2 [CA]>[Ec] [Ae]2 [EA]2 | [Ec][EB][EA][D^G] [CA]4 | %12
 [FA]2 [^E^G]>[FA] [Fd]3 [DA] | [DG][DF][CE]D [DB]2 [DA]2 | [DB]2 [Gc][Fd] [Fd][FA][DF][DG] | %15
 [DF]2 [CE]2 D4 |] %16
V:2
 x8 | x3 D x4 | x8 | x8 | x8 | x8 | x8 | x4 D4 | x8 | x8 | x8 | x8 | x8 | x3 D x4 | x8 | x4 D4 |] %16
V:3
 [D,A,]2 [D,D]>[D,D] [D,A,]3 [D,F,] | [D,B,][D,A,][D,G,][D,F,] [G,,G,]2 [D,F,]2 | %2
 [C,A,]2 [A,,A,]>[A,,A,] [D,A,]3 [D,A,] | [D,A,][B,,A,] [E,B,]>[E,B,] [A,,A,]4 | %4
 [D,A,]2 [D,D]>[D,D] [D,A,]3 [D,^A,] | [G,,B,][G,,B,][G,,D][G,,D] [D,D]2 [D,D]2 | %6
 [G,D]2 [G,^A,][G,B,] [F,A,][D,D][D,A,][G,,B,] | [A,,A,]2 [A,,G,]2 [D,F,]4 | %8
 [A,,A,]2 [C,A,]>[E,^G,] A,3 A, | [E,A,][E,^G,] [E,B,]>[E,B,] [E,D]2 [A,C]2 | %10
 A,2 A,>A, [A,C]2 [A,C]2 | [E,A,][E,D][E,C][E,B,] [A,,A,]4 | [D,A,]2 [D,D]>[D,D] [D,A,]3 [D,F,] | %13
 [D,B,][D,A,][D,G,][D,F,] [G,,G,]2 [D,F,]2 | G,2 [E,A,][D,A,] [D,A,][D,D][D,A,][G,,B,] | %15
 [A,,A,]2 [A,,G,]2 [D,F,]4 |] %16
V:4
 x8 | x8 | x8 | x8 | x8 | x8 | x8 | x8 | x4 A,3 A, | x8 | A,2 A,>A, x4 | x8 | x8 | x8 | G,2 x6 | %15
 x8 |] %16

